!!!OTL: 747a. Gesang auf die drei hohen Feste. / A. Zu Weihnachten.
!!!ARE: Europa, Mitteleuropa, Deutschland
!!!SCT: B0747
!!!TXL: @@DE
!!!YEM: Copyright 1995, estate of Helmut Schaffrath.
**kern	**text
*ICvox	*
*Ivox	*
*clefG2	*
*M4/4	*
*met(c)	*
*k[b-]	*
*F:	*
=1	=1
!LO:TX:a:t=Mäßig.	!
{2cc	1-3._O
2dd	du
=2	=2
4.cc	fröh-
8b-	-li-
(<4a	-che,
4b-)}	.
=3	=3
{2cc	o
2dd	du
=4	=4
4.cc	ſe-
8b-	-li-
(<4a	-ge,
4b-)}	.
=5	=5
{2cc	gna-
2cc	-den-
=6	=6
2dd	-brin-
4ee	-gen-
4ff	-de
=7	=7
2ee	Weihnachts-
2dd	.
=8	=8
2ee	-ʒeit!
2r}	.
=9	=9
{2cc	1-3._O
2dd	du
=10	=10
4.cc	fröh-
8b-	-li-
(<4a	-che,
4b-)}	.
=11	=11
{2cc	o
2dd	du
=12	=12
4.cc	ſe-
8b-	-li-
(<4a	-ge,
4b-)}	.
=13	=13
{2cc	gna-
2cc	-den-
=14	=14
2dd	-brin-
4ee	-gen-
4ff	-de
=15	=15
2ee	Weihnachts-
2dd	.
=16	=16
2ee	-ʒeit!
2r}	.
=17	=17
{(4.g	1._Welt
8a)	.
4g	ging
4a	ver-
=18	=18
(4.b-	-lo-
8cc)	.
2b-}	-ren,
=19	=19
{(<4.a	Chriſt
8b-)	.
4a	iſt
4b-	ge-
=20	=20
(4.cc	-bo-
8dd)	.
2cc}	-ren.
=21	=21
{(4ff	1-3._Freu-
4ee)	.
(4dd	-e,
4cc)	.
=22	=22
4ff	freu-
4dd	-e
4cc	dich,
4b-	o
=23	=23
2a	Chri-
2g	-ſten-
=24	=24
2f	-heit!
2r}	.
=25	=25
{(4.g	1._Welt
8a)	.
4g	ging
4a	ver-
=26	=26
(4.b-	-lo-
8cc)	.
2b-}	-ren,
=27	=27
{(<4.a	Chriſt
8b-)	.
4a	iſt
4b-	ge-
=28	=28
(4.cc	-bo-
8dd)	.
2cc}	-ren.
=29	=29
{(4ff	1-3._Freu-
4ee)	.
(4dd	-e,
4cc)	.
=30	=30
4ff	freu-
4dd	-e
4cc	dich,
4b-	o
=31	=31
2a	Chri-
2g	-ſten-
=32	=32
2f	-heit!
2r}	.
==	==
!!!AGN: Weihnachts - Lied, religioes
!!!GTL: Religioese Lieder
!!!ONB: ESAC (Essen Associative Code) Database: BOEHME
!!!AMT: simple quadruple
!!!AIN: vox
!!!EED: Helmut Schaffrath
!!!EEV: 1.0
!!!RDF**kern: < = below
!!Sicilianische Volksmelodie. 
!!@@COMMENT:"Deutſcher Text von J. Daniel Falk in Weimar 1616. (S. deſſen "Auserleſene Werke J. Th.
!!Leipʒig 1819. S. 257. Aufgenommen mit dreiſtimmigem Satʒ in die Schulliederſammlung des
!!Breslauer Schullehrer-Vereins". III. Heft. S. 9. Seitdem in allen Schulliederheften. Falk
!!hat aber blos die erſte Strophe von jedem dieſer drei Feſtlieder gedichtet; die übrigen Stropben
!!ſind neuerer Ʒuſatʒ, um für jedes Feſt einen beſonderen Text ʒu haben, nicht aber (wie bei Falk)
!!ʒur Weihnachtsʒeit auch gleich von Oſtern und Pfingſten ʒu ſingen. Verbreitet in der Kinderwelt
!!iſt blos die erſte Strophe ʒum lieben Weihnachtsfeſte. Die Bedeutung der übrigen Feſte liegt über
!!den kindlichen Anſchauungskreis hinaus. Die in der Sprache der Theologen verfaßte Ʒudichtung
!!iſt offenbar für Erwachſene berechnet."
!!@@END:
!!!URL-scan: https://archive.org/details/BoehmeVtLieder1895/page/n597/mode/2up
!!!ENC: Anna Maria Matuszewska
!!!EEV: 2024/18/07
*-	*-
